X:1
T:Pitcairn (Kinsey), 77.75 D
T:Pitcairn (Kinsey), 77.75 D
T:John Franklin Kinsey, 1888
T:Public Domain Courtesy of the Cyber Hymnal™
C:John Franklin Kinsey, 1888
Z:Public Domain
Z:Courtesy of the Cyber Hymnal™
%%score ( 1 2 ) ( 3 4 )
L:1/8
Q:1/4=108
M:4/4
K:D
V:1 treble 
V:2 treble 
V:3 bass 
V:4 bass 
V:1
 [DF]2 [DF]2 [DF]>[CE] [DF]>[EG] | ([FA]2 [Gd]2 [FA]2) z2 | [EG]2 [DF]2 [CE]2 [EG]2 | %3
 [GB]2 [FA]2 [DF]4 | [DF]2 [DF]2 [DF]>[CE] [DF]>[EG] | ([FA]2 [Gd]2 [FA]2) z2 | %6
 [Gc]2 [FA]2 [EG]2 [CE]2 | D6 z2 | [GB]2 [GB]2 [GB]>[Gc] [Gd]>[GB] | ([FA]4 [DF]2) z2 | %10
 [EG]2 [DF]2 [CE]>D D>[CE] | ([DF]4 [FA]2) z2 | [GB]2 [GB]2 [GB]>[Gc] [Gd]>[GB] | %13
 ([FA]4 [DF]2) z2 | [FA]2 [DF]2 [GB]2 [CA]2 | D6 z2 |] %16
V:2
 x8 | x8 | x8 | x8 | x8 | x8 | x8 | D6 x2 | x8 | x8 | x11/2 D/ D3/2 x/ | x8 | x8 | x8 | x8 | %15
 D6 x2 |] %16
V:3
 [D,A,]2 [D,A,]2 [D,A,]2 [D,A,]2 | ([D,A,]2 [D,B,]2 [D,A,]2 [D,A,]2) | A,2 A,,2 A,2 A,,2 | %3
 [D,A,]2 [D,A,]2 ([D,A,]2 [D,A,]2) | [D,A,]2 [D,A,]2 [D,A,]2 [D,A,]2 | %5
 ([D,A,]2 [D,B,]2 [D,A,]2 [D,A,]2) | A,2 A,,2 A,2 A,,2 | ([D,F,A,]2 [D,F,A,]2 [D,F,A,]2) z2 | %8
 [G,D]2 [G,D]2 [G,D]>[G,C] [G,B,]>[G,D] | (D4 A,2) z2 | %10
 [A,,A,]2 [A,,A,]2 [A,,A,]>[A,,F,] [A,,F,]>[A,,A,] | (A,4 D2) z2 | %12
 [G,D]2 [G,D]2 [G,D]>[G,C] [G,B,]>[G,D] | (D4 A,2) z2 | [D,A,]2 [D,A,]2 [G,,G,]2 [A,,G,]2 | %15
 [D,F,]6 z2 |] %16
V:4
 x8 | x8 | x8 | x8 | x8 | x8 | x8 | x8 | x8 | D,6 x2 | x8 | D,6 x2 | x8 | D,6 x2 | x8 | x8 |] %16

